!!!COM:	la Rue, Pierre de
!!!CDT:	~1452///-1518/11/20
!!!OPR:	Missa Inviolata
!!!ONM:	3
!!!OTL:	Credo
!!!AGN:	Mass; Credo
!!!SCT:	Rue1017c
!!!SCA:	Rue1017c
!!!voices-OPR:	4
!!!voices:	4
**kern	**kern	**kern	**kern
*staff4	*staff3	*staff2	*staff1
*Ivox	*Ivox	*Ivox	*Ivox
*I"Bassus	*I"Tenor	*I"Contra	*I"Discantus
*I'B	*I'T	*I'C	*I'D
*>[A,B]	*>[A,B]	*>[A,B]	*>[A,B]
*>A	*>A	*>A	*>A
*clefF4	*clefGv2	*clefG2	*clefG2
*k[]	*k[]	*k[]	*k[]
*M2/1	*M2/1	*M2/1	*M2/1
*met(C)	*met(C)	*met(C)	*met(C)
=1-	=1-	=1-	=1-
!!section: Patrem omnipotentem
!!!OMD: Patrem omnipotentem
0r	1c	1r	0r
.	1c	1g	.
=2	=2	=2	=2
0r	2r	1g	1r
.	2c\	.	.
.	2.c\	2r	1cc
.	.	2g/	.
.	4d\	.	.
=3	=3	=3	=3
0r	2e\	2g/	1.cc
.	1f	1a	.
.	4e\	4g/	2cc\
.	4d\	4f/	.
=4	=4	=4	=4
0r	2e\	2g/	2cc\
.	2f\	1a	2cc\
.	1d	.	2dd\
.	.	2b\	4ee\
.	.	.	4dd\
=5	=5	=5	=5
2r	1c	0cc	0ee
2c\	.	.	.
2c\	2r	.	.
[2A\	2e\	.	.
=6	=6	=6	=6
2A\]	2e\	0r	0r
2.d\	1f	.	.
4c\	.	.	.
4B\	2d\	.	.
4A\	.	.	.
=7	=7	=7	=7
2G\	2.g\	0r	0r
2.c\	.	.	.
.	4f\	.	.
.	4e\	.	.
4B\	4d\	.	.
4A\	[2f\	.	.
4G\	.	.	.
=8	=8	=8	=8
2A\	4f\]	0r	1r
.	4e\	.	.
2F\	1d	.	.
1E	.	.	1ee
.	2c#i\	.	.
=9	=9	=9	=9
0D	0d	1.a	1.ff
.	.	4g/	4ee\
.	.	4f/	4dd\
=10	=10	=10	=10
1r	1r	2g/	2ee\
.	.	2f/	2.dd\
2r	1f	2.d/	.
.	.	.	4cc\
[2D\	.	.	[2a/
.	.	4e/	.
=11	=11	=11	=11
2D\]	2f\	4f/	2a/]
.	.	4g/	.
2D\	2.d\	1a	1dd
2.F\	.	.	.
.	4c\	.	.
.	4A/	4g/	[2cc\
4E\	4B\	4f/	.
=12	=12	=12	=12
2C/	4c\	2e/	4cc\]
.	4d\	.	4b\
2C/	1e	4e/	1g
.	.	4f/	.
2E\	.	4g/	.
.	.	4a/	.
2F\	2A/	2f/	[2cc\
=13	=13	=13	=13
2E\	2G/	2g/	2cc\]
2F\	1c	2a/	2cc\
1D	.	1f	2dd\
.	2B\	.	[2ff\
=14	=14	=14	=14
0C	1c	1r	4ff\]
.	.	.	4ee\
.	.	.	1ee
.	2r	[1g	.
.	2c\	.	[2cc\
=15	=15	=15	=15
1r	2c\	0g_	2cc\]
.	2c\	.	4b\
.	.	.	4a/
2.G\	2.d\	.	1b
4A\	4c\	.	.
=16	=16	=16	=16
2B\	2d\	1g]	0r
1c	2.e\	.	.
.	.	[1g	.
.	4c\	.	.
2B\	2d\	.	.
=17	=17	=17	=17
1c	1e	1g]	0r
2B\	2d\	1g	.
2c\	2e\	.	.
=18	=18	=18	=18
2G\	2d\	2g/	0r
2C/	1e	1g	.
4E\	.	.	.
4D\	.	.	.
4E\	4d\	4f/	.
4F\	4c\	4e/	.
=19	=19	=19	=19
[0G	1B	2d/	2r
.	.	2d/	2g/
.	[1d	4g/	4b\
.	.	4f/	4a/
.	.	4g/	4b\
.	.	4a/	4cc\
=20	=20	=20	=20
0G]	1d]	2b\	2dd\
.	.	2b\	2g/
.	2r	1g	1dd
.	2d\	.	.
=21	=21	=21	=21
0r	1e	2r	2r
.	.	2g/	2g/
.	2e\	4g/	4b\
.	.	4f/	4a/
.	2e\	4g/	4b\
.	.	4a/	4cc\
=22	=22	=22	=22
1.G	0d	1.b	2dd\
.	.	.	1gg
2G\	.	2b\	4ff\
.	.	.	4ee\
=23	=23	=23	=23
2G\	2r	1b	1.dd
2G\	1d	.	.
2D\	.	2a/	.
[2G\	2d\	[2b\	2g/
=24	=24	=24	=24
2G\]	1e	2b\]	2.b\
2E\	.	2g/	.
.	.	.	4cc\
2F\	1d	2a/	1dd
2G\	.	2b\	.
=25	=25	=25	=25
0C	1c	2cc\	0ee
.	.	4b\	.
.	.	4a/	.
.	2r	4g/	.
.	.	4f/	.
.	[2g\	4e/	.
.	.	4d/	.
=26	=26	=26	=26
2r	2g\]	2c/	0r
1c	2g\	1g	.
.	1e	.	.
2c\	.	2g/	.
=27	=27	=27	=27
2A\	2e\	2a/	0r
2A\	2.f\	2a/	.
2.B\	.	1f	.
.	4d\	.	.
.	[2d\	.	.
4G\	.	.	.
=28	=28	=28	=28
0G	4d\]	2g/	0r
.	4c\	.	.
.	4B\	1g	.
.	4A/	.	.
.	1G	.	.
.	.	4f/	.
.	.	4e/	.
=29	=29	=29	=29
1r	2r	4d/	0r
.	.	4c/	.
.	1d	4B/	.
.	.	4A/	.
2r	.	2G/	.
[2G\	2d\	[2g/	.
=30	=30	=30	=30
2G\]	2e\	2g/]	0r
2G\	2e\	2g/	.
2A\	1c	2e/	.
2A\	.	2e/	.
=31	=31	=31	=31
2F\	2A/	2f/	0r
2.G\	2.B\	2d/	.
.	.	2e/	.
4F\	4A/	.	.
[2D\	[2A/	[2f/	.
=32	=32	=32	=32
4D\]	2A/]	4f/]	0r
4E\	.	4e/	.
2F\	2F/	1d	.
1E	1G	.	.
.	.	2c#i/	.
=33	=33	=33	=33
0D	1A	0d	2r
.	.	.	1a
.	2r	.	.
.	2A/	.	2a/
=34	=34	=34	=34
0r	2B\	1r	2dd\
.	2G/	.	2dd\
.	2A/	2r	2.cc\
.	2B\	2d/	.
.	.	.	4b\
=35	=35	=35	=35
0r	2.c\	2e/	2g/
.	.	2c/	2a/
.	4B\	.	.
.	1G	2d/	2b\
.	.	2e/	2g/
=36	=36	=36	=36
0r	1r	2.f/	2a/
.	.	.	2b\
.	.	4e/	.
.	1e	1c	2.cc\
.	.	.	4b\
=37	=37	=37	=37
1.G	2d\	2r	2g/
.	2B\	1g	1dd
.	2.d\	.	.
2G\	.	2g/	2b\
.	4c\	.	.
=38	=38	=38	=38
1G	2B\	1g	2.dd\
.	1d	.	.
.	.	.	4cc\
1G	.	2g/	2b\
.	[2B\	[2g/	[2dd\
=39	=39	=39	=39
0G	2B\]	2g/]	4dd\]
.	.	.	4cc\
.	2G/	4f/	4b\
.	.	4e/	4a/
.	2.B\	2d/	2g/
.	.	[2g/	2b\
.	4c\	.	.
=40	=40	=40	=40
1r	1.d	2g/]	1a
.	.	2f#i/	.
1G	.	2g/	1g
.	2G/	2b\	.
=41	=41	=41	=41
2E\	[0G	2g/	0r
2.G\	.	2.b\	.
4F\	.	4a/	.
[2E\	.	4g/	.
.	.	4f/	.
=42	=42	=42	=42
2E\]	0G]	0g	1r
2.G\	.	.	.
.	.	.	2r
4F\	.	.	.
4E\	.	.	2ee\
4D\	.	.	.
=43	=43	=43	=43
2C/	0r	2e/	2ee\
2c\	.	2.g/	2ee\
2B\	.	.	2dd\
.	.	4f/	.
[2c\	.	4e/	[2ee\
.	.	4d/	.
=44	=44	=44	=44
2c\]	0r	2e/	2ee\]
4B\	.	2f/	4dd\
4A\	.	.	4cc\
1G	.	[1g	1b
=45	=45	=45	=45
2r	1e	1g]	0r
1c	.	.	.
.	2e\	1r	.
2c\	[2e\	.	.
=46	=46	=46	=46
2c\	2e\]	0r	0r
2c\	2e\	.	.
2B\	2d\	.	.
[2d\	[2f\	.	.
=47	=47	=47	=47
2d\]	4f\]	0r	0r
.	4e\	.	.
2.c\	4d\	.	.
.	4c\	.	.
.	1d	.	.
4B\	.	.	.
2B\	.	.	.
=48	=48	=48	=48
1c	0c	1g	2r
.	.	.	1ee
1C	.	2g/	.
.	.	2g/	2ee\
=49	=49	=49	=49
0r	0r	2c/	2ee\
.	.	2g/	2ee\
.	.	4f/	4dd\
.	.	4e/	4cc\
.	.	2f/	2dd\
=50	=50	=50	=50
0r	0r	2g/	2ee\
.	.	2a/	4ff\
.	.	.	4ee\
.	.	2b\	4dd\
.	.	.	4cc\
.	.	[2cc\	2ee\
=51	=51	=51	=51
0r	1r	2cc\]	1dd
.	.	2b\	.
.	1c	1cc	1cc
=52	=52	=52	=52
1G	1d	2r	0r
.	.	1b	.
2G\	[1d	.	.
2G\	.	2b\	.
=53	=53	=53	=53
2F\	1d]	2a/	0r
1G	.	1b	.
.	1d	.	.
4F\	.	4a/	.
4E\	.	4g/	.
=54	=54	=54	=54
0D	1d	[0a	1dd
.	1d	.	2dd\
.	.	.	2dd\
=55	=55	=55	=55
0r	[0f	0a]	2cc\
.	.	.	1dd
.	.	.	4cc\
.	.	.	4b\
=56	=56	=56	=56
0r	0f]	0r	2a/
.	.	.	2a/
.	.	.	2cc\
.	.	.	2dd\
=57	=57	=57	=57
1r	0e	0r	2ee\
.	.	.	2cc\
2r	.	.	1gg
2C/	.	.	.
=58	=58	=58	=58
2C/	1e	1g	2gg\
2C/	.	.	1ee
2E\	1e	2g/	.
2F\	.	2g/	4dd\
.	.	.	4cc\
=59	=59	=59	=59
1G	1d	2g/	2b\
.	.	2d/	2b\
1C	1e	[1g	1cc
=60	=60	=60	=60
0G	2d\	2g/]	0b
.	2d\	2g/	.
.	1e	1g	.
=61	=61	=61	=61
2r	1d	1r	2r
2G\	.	.	2dd\
1G	1d	2r	1dd
.	.	2g/	.
=62	=62	=62	=62
2.C/	1.g	2g/	2.ee\
.	.	1e	.
4D\	.	.	4dd\
2E\	.	.	4cc\
.	.	.	4b\
2D\	2f\	2f/	[2dd\
=63	=63	=63	=63
2E\	1e	2g/	2dd\]
2C/	.	2a/	1cc
1G	1d	4g/	.
.	.	4f/	.
.	.	4e/	2b\
.	.	4d/	.
=64	=64	=64	=64
[0C	[0c	2e/	0cc
.	.	2e/	.
.	.	2e/	.
.	.	[2g/	.
=65	=65	=65	=65
0C]	0c]	2g/]	2r
.	.	2f/	2ee\
.	.	2e/	2ee\
.	.	4d/	[2gg\
.	.	4c/	.
=66	=66	=66	=66
1r	1r	2.B/	2gg\]
.	.	.	2ff\
.	.	4G/	.
1C	2r	[1G	2ee\
.	2e\	.	4dd\
.	.	.	4cc\
=67	=67	=67	=67
2E\	2e\	1G]	2b\
1E	2.g\	.	2e/
.	.	[1gl	2b\
.	4f\	.	.
2C/	[2e\	.	2cc\
=68	=68	=68	=68
2E\	2e\]	0g_	[0bl
2G\	4d\	.	.
.	4c\	.	.
[1Gl	2d\	.	.
.	2G/	.	.
=69	=69	=69	=69
0G]	2d\	0g]	0b]
.	2e\	.	.
.	1dl	.	.
!!LO:LB:i:g=z
=70||	=70||	=70||	=70||
*>B	*>B	*>B	*>B
*clefF4	*clefGv2	*clefG2	*clefG2
*k[]	*k[]	*k[]	*k[]
*M2/1	*M2/1	*M2/1	*M2/1
*met(C)	*met(C)	*met(C)	*met(C)
!!section: Et incarnatus est
!!!OMD: Et incarnatus est
0r	0c	1r	1.cc
.	.	2.c/	.
.	.	.	4b\
.	.	4d/	4a/
=71	=71	=71	=71
0r	1c	2e/	2g/
.	.	2.f/	1a
.	1c	.	.
.	.	4e/	.
.	.	2e/	2g/
=72	=72	=72	=72
0r	1d	4f/	2f/
.	.	4e/	.
.	.	4d/	2e/
.	.	4c/	.
.	1d	2B/	1d
.	.	4c/	.
.	.	4B/	.
=73	=73	=73	=73
1.c	0e	1c	1c
.	.	2r	1r
4B\	.	2c/	.
4A\	.	.	.
=74	=74	=74	=74
2G\	0r	2d/	0r
1A	.	2.f/	.
.	.	4e/	.
2G\	.	2e/	.
=75	=75	=75	=75
2F\	0f	4f/	0r
.	.	4e/	.
2E\	.	4d/	.
.	.	4c/	.
1D	.	2B/	.
.	.	4c/	.
.	.	4B/	.
=76	=76	=76	=76
0C	1e	1c	0r
.	1e	2r	.
.	.	2g/	.
=77	=77	=77	=77
0r	1.d	1a	0ff
.	.	[1a	.
.	4c\	.	.
.	4B\	.	.
=78	=78	=78	=78
0F	1c	1a]	1ff
.	1d	1f	1ff
=79	=79	=79	=79
1C	2.e\	2g/	0ee
.	.	2a/	.
.	4d\	.	.
1C	2c\	1g	.
.	4B\	.	.
.	4A/	.	.
=80	=80	=80	=80
1.G	1B	1.g	1.dd
.	2r	.	.
4F\	2B\	2g/	2dd\
4G\	.	.	.
=81	=81	=81	=81
2F\	2A/	2a/	0dd
2.B-\	2.d\	2f/	.
.	.	2g/	.
4A\	4c\	.	.
2G\	2B\	[2d/	.
=82	=82	=82	=82
2F\	2A/	2d/]	1dd
2G\	2G/	1g	.
1D	1A	.	4dd\
.	.	.	4cc\
.	.	2f#i/	4b\
.	.	.	4a/
=83	=83	=83	=83
2r	2G/	1g	0b
2G\	2B\	.	.
2E\	2G/	2r	.
[2G\	[2B\	2g/	.
=84	=84	=84	=84
2G\]	2B\]	2d/	1r
4F\	4A/	1g	.
4E\	4G/	.	.
1D	1A	.	2.dd\
.	.	2f#i/	.
.	.	.	4cc\
=85	=85	=85	=85
1r	1G	1.g	2b\
.	.	.	2g/
1G	2r	.	1dd
.	2B\	4f/	.
.	.	4e/	.
=86	=86	=86	=86
1A	1c	2e/	2cc\
.	.	2c/	2.ee\
1c	1c	2.e/	.
.	.	.	4ff\
.	.	.	[2gg\
.	.	4f/	.
=87	=87	=87	=87
1G	1d	2g/	2gg\]
.	.	2a/	4ff\
.	.	.	4ee\
1G	1d	1b	1dd
=88	=88	=88	=88
0C	0c	0cc	2r
.	.	.	2ee\
.	.	.	1ee
=89	=89	=89	=89
0r	0r	2r	1ff
.	.	2a/	.
.	.	1a	1ee
=90	=90	=90	=90
0r	0r	1b	2dd\
.	.	.	2b\
.	.	1a	2cc\
.	.	.	2a/
=91	=91	=91	=91
0r	0r	2g/	2b\
.	.	2e/	2cc\
.	.	2f/	2a/
.	.	2d/	[2dd\
=92	=92	=92	=92
0r	0r	2e/	4dd\]
.	.	.	4cc\
.	.	2f/	2cc\
.	.	1d	2dd\
.	.	.	[2ff\
=93	=93	=93	=93
0r	0r	0a	2ff\]
.	.	.	4ee\
.	.	.	4dd\
.	.	.	1cc
=94	=94	=94	=94
0r	0r	2r	2r
.	.	1a	1ff
.	.	2g/	2ee\
=95	=95	=95	=95
0r	0r	2a/	2ff\
.	.	2g/	2.ee\
.	.	2.a/	.
.	.	.	4dd\
.	.	.	4cc\
.	.	4g/	4b\
=96	=96	=96	=96
0r	0r	4f/	2a/
.	.	4e/	.
.	.	2d/	1dd
.	.	1e	.
.	.	.	2cc#i\
=97	=97	=97	=97
1r	0f	1d	1dd
1D	.	1d	2r
.	.	.	2a/
=98	=98	=98	=98
1D	1f	1d	1dd
[1F	[1f	[1a	[1cc
=99	=99	=99	=99
1F]	1f]	1a]	1cc]
1F	1f	1a	1a
=100	=100	=100	=100
1F	1f	1a	1cc
1D	1f	1a	1dd
=101	=101	=101	=101
0A	0e	[0a	[0ee
=102	=102	=102	=102
2r	1r	0a]	0ee]
2A\	.	.	.
2A\	1c	.	.
[2A\	.	.	.
=103	=103	=103	=103
2A\]	1c	0r	0r
4G\	.	.	.
4F\	.	.	.
2G\	1e	.	.
2A\	.	.	.
=104	=104	=104	=104
1D	1f	0r	0r
2r	1e	.	.
2A\	.	.	.
=105	=105	=105	=105
2A\	2r	0r	0r
4G\	2e\	.	.
4F\	.	.	.
2G\	2e\	.	.
2A\	[2e\	.	.
=106	=106	=106	=106
1E	2e\]	0r	0r
.	4d\	.	.
.	4c\	.	.
2r	2d\	.	.
[2c\	2e\	.	.
=107	=107	=107	=107
2c\]	1A	0r	0r
4B\	.	.	.
4A\	.	.	.
2G\	2r	.	.
2A\	2e\	.	.
=108	=108	=108	=108
0E	1g	0r	0r
.	2g\	.	.
.	4f\	.	.
.	4e\	.	.
=109	=109	=109	=109
2r	2d\	0r	0r
2E\	2e\	.	.
1G	2B\	.	.
.	2e\	.	.
=110	=110	=110	=110
1G	2d\	0r	0r
.	1g	.	.
1A	.	.	.
.	4f\	.	.
.	4e\	.	.
=111	=111	=111	=111
4A\	2f\	1a	0r
4G\	.	.	.
4F\	1e	.	.
4E\	.	.	.
1F	.	2a/	.
.	2d\	2a/	.
=112	=112	=112	=112
0E	0e	2g/	1ee
.	.	2.e/	.
.	.	.	2ee\
.	.	4f/	.
.	.	[2g/	2ee\
=113	=113	=113	=113
0r	0r	2g/]	2dd\
.	.	4f/	2.b\
.	.	4e/	.
.	.	2.d/	.
.	.	.	4cc\
.	.	.	[2dd\
.	.	4e/	.
=114	=114	=114	=114
0r	1r	2f/	2dd\]
.	.	1g	4cc\
.	.	.	4b\
.	1d	.	1a
.	.	2f#i/	.
=115	=115	=115	=115
1r	1e	1g	0g
1C	2e\	2.G/	.
.	[2e\	.	.
.	.	4A/	.
=116	=116	=116	=116
1.E	2e\]	2B/	0r
.	4d\	1c	.
.	4c\	.	.
.	2e\	.	.
4D\	2f\	4B/	.
4C/	.	4A/	.
=117	=117	=117	=117
2E\	0g	2.G/	0r
2F\	.	.	.
.	.	4A/	.
1G	.	4B/	.
.	.	4c/	.
.	.	[2d/	.
=118	=118	=118	=118
2.D\	1f	2d/]	0r
.	.	1c	.
4E\	.	.	.
2F\	1d	.	.
2G\	.	2B/	.
=119	=119	=119	=119
2C/	1e	2c/	2g/
1E	.	1g	4g/
.	.	.	4a/
.	2e\	.	4b\
.	.	.	4cc\
2D\	[2f\	[2a/	[2dd\
=120	=120	=120	=120
2F\	4f\]	4a/]	2dd\]
.	4e\	4g/	.
2A\	4d\	4f/	1cc
.	4c\	4e/	.
1G	1d	1g	.
.	.	.	2b\
=121	=121	=121	=121
0C	0c	2r	1cc
.	.	2.e/	.
.	.	.	2r
.	.	4f/	.
.	.	4g/	[2cc\
.	.	4e/	.
=122	=122	=122	=122
0r	0r	2a/	4cc\]
.	.	.	4dd\
.	.	2a/	4ee\
.	.	.	4cc\
.	.	2f/	2ff\
.	.	2f/	2ff\
=123	=123	=123	=123
0r	0r	2g/	2dd\
.	.	2g/	2dd\
.	.	1c	2ee\
.	.	.	2ee\
=124	=124	=124	=124
0r	0r	2r	2a/
.	.	1a	1cc
.	.	4g/	4b\
.	.	4f/	4a/
=125	=125	=125	=125
0r	0r	2g/	2b\
.	.	2a/	2cc\
.	.	2d/	2dd\
.	.	[2f/	[2a/
=126	=126	=126	=126
0r	0r	2f/]	2a/]
.	.	4e/	4g/
.	.	4d/	4f/
.	.	2e/	2g/
.	.	2f/	2a/
=127	=127	=127	=127
0r	1r	1d	1f
.	2r	[1c	1e
.	2e\	.	.
=128	=128	=128	=128
0r	1.g	0c_	2r
.	.	.	2ee\
.	.	.	[1gg
.	2g\	.	.
=129	=129	=129	=129
0r	1g	1c]	1gg]
.	[1a	1r	2ee\
.	.	.	[2ff\
=130	=130	=130	=130
0r	1a]	0r	4ff\]
.	.	.	4ee\
.	.	.	4dd\
.	.	.	4cc\
.	1g	.	1b
=131	=131	=131	=131
0F	2r	0a	1r
.	2c\	.	.
.	1f	.	1cc
=132	=132	=132	=132
1F	1f	1a	1cc
1F	[1f	1a	1cc
=133	=133	=133	=133
0F	1f]	1cc	1a
.	1f	2cc\	2a/
.	.	[2a/	[2cc\
=134	=134	=134	=134
1F	2.c\	2a/]	2cc\]
.	.	4g/	4b\
.	4d\	4f/	4a/
2C/	2e\	2g/	2cc\
[2F\	4d\	2a/	2a/
.	4c\	.	.
=135	=135	=135	=135
2F\]	4d\	0f	1dd
.	4c\	.	.
2E\	4B\	.	.
.	4A/	.	.
1D	1B	.	1ff
=136	=136	=136	=136
0C	0c	2r	0ee
.	.	1g	.
.	.	2f/	.
=137	=137	=137	=137
1.G	1r	2e/	2r
.	.	2d/	1dd
.	2r	2g/	.
2G\	[2g\	4f/	2cc\
.	.	4e/	.
=138	=138	=138	=138
2G\	2g\]	1d	2b\
2G\	2f\	.	2a/
1G	2e\	1r	1g
.	2d\	.	.
=139	=139	=139	=139
1A	1c	0r	1cc
2G\	1g	.	2b\
2G\	.	.	2b\
=140	=140	=140	=140
1D	2f\	0r	4a/
.	.	.	4g/
.	4e\	.	2a/
.	4d\	.	.
[1G	2e\	.	1g
.	2e\	.	.
=141	=141	=141	=141
0G_	1d	0r	2r
.	.	.	1dd
.	2r	.	.
.	[2g\	.	2cc\
=142	=142	=142	=142
1G]	2g\]	0r	2b\
.	2f\	.	2a/
1G	2e\	.	1g
.	2d\	.	.
=143	=143	=143	=143
0r	1c	0r	2r
.	.	.	2.cc\
.	2r	.	.
.	.	.	4a/
.	[2f\	.	4b\
.	.	.	4cc\
=144	=144	=144	=144
0r	4f\]	0r	4a/
.	4d\	.	4b\
.	4e\	.	4cc\
.	4f\	.	4dd\
.	4d\	.	2b\
.	4e\	.	.
.	4f\	.	[2dd\
.	4g\	.	.
=145	=145	=145	=145
2r	2e\	0r	2dd\]
2F\	2f\	.	1cc
2G\	1d	.	.
2G\	.	.	2b\
=146	=146	=146	=146
2A\	1c	2r	1cc
1c	.	2c/	.
.	1r	2d/	1r
2B\	.	2d/	.
=147	=147	=147	=147
2c\	0r	2e/	0r
4B\	.	1g	.
4A\	.	.	.
2G\	.	.	.
2A\	.	2f/	.
=148	=148	=148	=148
2B\	0r	2g/	0r
2c\	.	4f/	.
.	.	4e/	.
2d\	.	2d/	.
2G\	.	2e/	.
=149	=149	=149	=149
2A\	0r	2f/	0r
2B\	.	2g/	.
4c\	.	2a/	.
4A\	.	.	.
2d\	.	2d/	.
=150	=150	=150	=150
2G\	0r	2e/	0r
2A\	.	2f/	.
2B\	.	4g/	.
.	.	4e/	.
[2c\	.	[2a/	.
=151	=151	=151	=151
4c\]	0c	2a/]	1r
4B\	.	.	.
4A\	.	1g	.
4G\	.	.	.
1A	.	.	1cc
.	.	2f#i/	.
=152	=152	=152	=152
1G	1d	0g	1b
1G	1d	.	1b
=153	=153	=153	=153
2F\	1f	0r	0a
2F\	.	.	.
[1D	2r	.	.
.	2F/	.	.
=154	=154	=154	=154
1D]	2.F/	0r	1r
.	4G/	.	.
1F	2A/	.	1a
.	2B\	.	.
=155	=155	=155	=155
2.E\	2c\	0r	1g
.	1d	.	.
4D\	.	.	.
1E	.	.	1g
.	2c#i\	.	.
=156	=156	=156	=156
0D	0d	2a/	2.f/
.	.	1a	.
.	.	.	4g/
.	.	.	2a/
.	.	2g/	2b\
=157	=157	=157	=157
0r	0r	2f/	2cc\
.	.	4e/	1dd
.	.	4d/	.
.	.	2e/	.
.	.	2e/	2cc\
=158	=158	=158	=158
2r	1.f	1d	2dd\
2D\	.	.	4cc\
.	.	.	4b\
2.D\	.	2r	1a
.	2f\	2a/	.
4E\	.	.	.
=159	=159	=159	=159
2F\	1f	2a/	2r
2G\	.	2b\	2dd\
2A\	1f	2.cc\	2cc\
2B\	.	.	2dd\
.	.	4b\	.
=160	=160	=160	=160
2c\	2.e\	2a/	2ee\
2.d\	.	2a/	2ff\
.	4d\	.	.
.	1e	1g	2.gg\
4c\	.	.	.
2c\	.	.	.
.	.	.	4ee\
=161	=161	=161	=161
1d	2d\	2r	2ff\
.	2d\	2.a/	4ee\
.	.	.	4dd\
1A	4e\	.	4cc\
.	4d\	4b\	4b\
.	4e\	4cc\	4cc\
.	4f\	4a/	4dd\
=162	=162	=162	=162
2G\	4g\	2b\	2ee\
.	4f\	.	.
2B\	4e\	2g/	1dd
.	4d\	.	.
1A	1e	[1a	.
.	.	.	2cc#i\
=163	=163	=163	=163
2r	[0d	2a/]	2dd\
2D\	.	2f/	2a/
2G\	.	1g	2b\
2G\	.	.	2b\
=164	=164	=164	=164
4D\	0d_	4f/	1a
4E\	.	4g/	.
4F\	.	4a/	.
8E\L	.	8g/L	.
8F\J	.	8a/J	.
1G	.	2b\	2g/
.	.	2g/	2b\
=165	=165	=165	=165
2F\	0d]	2r	2a/
2G\	.	2g/	1g
1D	.	2a/	.
.	.	2a/	2f#i/
=166	=166	=166	=166
2r	0r	1.b	0g
2.G\	.	.	.
4A\	.	.	.
2B\	.	4a/	.
.	.	4g/	.
=167	=167	=167	=167
2c\	0r	4a/	0r
.	.	4g/	.
1d	.	2b\	.
.	.	2a/	.
4c\	.	[2g/	.
4B\	.	.	.
=168	=168	=168	=168
1A	1r	2g/]	1r
.	.	2f#i/	.
1G	1d	1g	1b
=169	=169	=169	=169
2r	2e\	0r	2cc\
2.c\	2e\	.	2cc\
.	1f	.	1dd
4B\	.	.	.
2B\	.	.	.
=170	=170	=170	=170
2.c\	2.e\	0r	1g
4A\	4c\	.	.
2B\	2d\	.	2r
2c\	2e\	.	2ee\
=171	=171	=171	=171
2.d\	2.f\	0r	2dd\
.	.	.	2b\
8c\L	4d\	.	.
8B\J	.	.	.
1A	2e\	.	2.cc\
.	2f\	.	.
.	.	.	4dd\
=172	=172	=172	=172
0G	2g\	2r	1b
.	4f\	2g/	.
.	4e\	.	.
.	1d	4g/	2r
.	.	4a/	.
.	.	2b\	2dd\
=173	=173	=173	=173
0C	0c	1cc	2.ee\
.	.	.	4ff\
.	.	2r	1gg
.	.	2g/	.
=174	=174	=174	=174
0r	0r	2a/	2r
.	.	2b\	2dd\
.	.	2cc\	2ee\
.	.	4b\	2ff\
.	.	4a/	.
=175	=175	=175	=175
0r	0r	2g/	2gg\
.	.	2a/	4ff\
.	.	.	4ee\
.	.	2b\	2dd\
.	.	[2a/	2ee\
=176	=176	=176	=176
0r	0r	2a/]	2ff\
.	.	4g/	1ee
.	.	4f/	.
.	.	2e/	.
.	.	[2g/	4dd\
.	.	.	4cc\
=177	=177	=177	=177
1r	0r	2g/]	2b\
.	.	4f/	1cc
.	.	4e/	.
1G	.	1d	.
.	.	.	2b\
=178	=178	=178	=178
2A\	1e	0c	0cc
2A\	.	.	.
1F	2f\	.	.
.	2f\	.	.
=179	=179	=179	=179
1G	1d	0r	0r
2E\	1g	.	.
2C/	.	.	.
=180	=180	=180	=180
2E\	2e\	0r	0r
2F\	2c\	.	.
[1G	2e\	.	.
.	2f\	.	.
=181	=181	=181	=181
0G_	2g\	0r	1dd
.	4f\	.	.
.	4e\	.	.
.	1d	.	2b\
.	.	.	2g/
=182	=182	=182	=182
1G]	0r	0g	2b\
.	.	.	2cc\
1G	.	.	1dd
=183	=183	=183	=183
1r	0r	2e/	1g
.	.	2c/	.
1A	.	2e/	2r
.	.	2f/	2cc\
=184	=184	=184	=184
2G\	1r	1g	2b\
2C/	.	.	1ee
2E\	1e	1c	.
2F\	.	.	4dd\
.	.	.	4cc\
=185	=185	=185	=185
[0G	2d\	2r	1b
.	2G/	1g	.
.	2B\	.	1ee
.	2c\	4f/	.
.	.	4e/	.
=186	=186	=186	=186
0G_	1d	2g/	2dd\
.	.	2d/	2g/
.	1e	2.g/	2b\
.	.	.	2cc\
.	.	4a/	.
=187	=187	=187	=187
0G]	2d\	2b\	1.dd
.	2d\	1cc	.
.	1g	.	.
.	.	2b\	4ee\
.	.	.	4dd\
=188	=188	=188	=188
0r	2e\	0cc	2ee\
.	2c\	.	1gg
.	2e\	.	.
.	2f\	.	[2ff\
=189	=189	=189	=189
0r	2g\	0r	2ff\]
.	2a\	.	1ee
.	1f	.	.
.	.	.	2dd\
=190	=190	=190	=190
*M3/1	*M3/1	*M3/1	*M3/1
*met(3)	*met(3)	*met(3)	*met(3)
1r	1e	0g	0.ee
1E	1e	.	.
1E	1e	1g	.
=191	=191	=191	=191
1.D	1.f	1.a	0.r
4E\	2e\	2g/	.
4F\	.	.	.
1G	2e\	1b	.
.	2d\	.	.
=192	=192	=192	=192
1F	1.d	1a	1r
1.E	.	0g	1ee
.	2c\	.	.
.	1c	.	1ee
2D\	.	.	.
=193	=193	=193	=193
1D	1d	2b\	1ff
.	.	2a/	.
1r	1r	2g/	2ee\
.	.	2f/	2dd\
1r	1g	1e	1cc
=194	=194	=194	=194
1D	1.f	0d	1dd
2F\	.	.	1r
2G\	2d\	.	.
1E	2e\	1r	1gg
.	2c\	.	.
=195	=195	=195	=195
0D	0d	1a	1.ff
.	.	2g/	.
.	.	2f/	2dd\
1r	1r	1e	2ee\
.	.	.	2cc\
=196	=196	=196	=196
0.r	0.r	2d/	1dd
.	.	2e/	.
.	.	2f/	2cc\
.	.	2g/	2b\
.	.	2a/	1a
.	.	2f/	.
=197	=197	=197	=197
1G	2G/	1g	1b
.	2A/	.	.
2F\	2B\	1r	1r
2E\	2c\	.	.
1D	2d\	1r	1dd
.	2B\	.	.
=198	=198	=198	=198
1C	0c	1g	2ee\
.	.	.	2cc\
1C	.	2g/	2ee\
.	.	2f/	2ff\
1c	1r	1e	2gg\
.	.	.	2ee\
=199	=199	=199	=199
1d	2d\	1d	1ff
.	2e\	.	.
2c\	2f\	1r	2ee\
2B\	2g\	.	2dd\
1A	2a\	1r	1cc
.	2f\	.	.
=200	=200	=200	=200
1G	1g	2d/	1dd
.	.	2e/	.
1r	1r	2f/	2cc\
.	.	2g/	2b\
1r	1r	2a/	1a
.	.	2f/	.
=201	=201	=201	=201
1G	2G/	1g	1g
.	2A/	.	.
2F\	2B\	1r	1gg
2E\	2c\	.	.
1D	2d\	1r	1ff
.	2B\	.	.
=202	=202	=202	=202
1C	1c	2g/	1.ee
.	.	2a/	.
1G	1d	2b\	.
.	.	2cc\	2dd\
1G	1d	2dd\	1dd
.	.	2b\	.
=203	=203	=203	=203
0.C	0.c	1.cc	0ee
.	.	2b\	.
.	.	2a/	1r
.	.	2g/	.
=204	=204	=204	=204
1r	0.r	1g	2g/
.	.	.	2a/
1r	.	2f/	2b\
.	.	2e/	2cc\
1G	.	1d	2dd\
.	.	.	2b\
=205	=205	=205	=205
1A	2A/	1c	1cc
.	2B\	.	.
2G\	2c\	1r	1.ee
2F\	2d\	.	.
1E	2e\	1r	.
.	2c\	.	2ff\
=206	=206	=206	=206
0.D	0d	2d/	1.ff
.	.	2e/	.
.	.	2f/	.
.	.	2g/	2ee\
.	1r	2a/	2dd\
.	.	2f/	2cc\
=207	=207	=207	=207
1G	2d\	1g	1b
.	2e\	.	.
2F\	2f\	1.a	1.dd
2E\	2g\	.	.
1D	2a\	.	.
.	2f\	2b\	2ee\
=208	=208	=208	=208
1C	1g	1cc	1ee
0G	2f\	2b\	2dd\
.	2e\	2a/	2cc\
.	1d	1g	1b
=209	=209	=209	=209
1c	1e	1a	1cc
2B\	2d\	1.g	1.dd
2A\	2c\	.	.
1G	1B	.	.
.	.	2e/	2cc\
=210	=210	=210	=210
1A	1c	1f	1.cc
0G	0d	0g	.
.	.	.	2b\
.	.	.	1b
=211	=211	=211	=211
1E	[0.cl	1g	[0.ccl
1F	.	1a	.
2E\	.	2g/	.
2D\	.	2f/	.
=212	=212	=212	=212
0.Cl	0.c]	0.el	0.cc]
==	==	==	==
*-	*-	*-	*-
!!!RDF**kern: l=long note in original notation
!!!RDF**kern: i=editorial accidental
!!!ENC:	Chris Gage 05-14-2013
!!!END:	2013/07/24/
!!!EED:	Jesse Rodin
!!!EEV:	2013/08/05/
!!!ONB:	Translated from MusicXML and edited on 2013/08/05/ by Craig Sapp
!!muse2ps: T^@{OPR}^u^@{ONM}{. }@{OTL}^C^@{COM}^i2I150v85,85,85,150Q8c90
